X:1
T:So offt ich schlagen
T:André Vierendeels
T:Melody by Georg Vogler (1625) (Soprano voice) Source : Catechismus---Würzburg---J.Volmari---1652. Editor : André Vierendeels (22/09/17).
T:Notes : Original clefs : C1, other voices supplied editorially Original note values have been halved Text Middle German 
T:So offt ich schlagen
T:©
T:©
T:©
C:André Vierendeels
Z:©
%%score [ 1 2 3 ]
L:1/8
Q:1/4=120
M:2/2
K:F
V:1 treble nm="Soprano" snm="S"
V:2 treble nm="Alto" snm="A"
V:3 bass nm="Bass" snm="B"
V:1
"^1)" F4 F2 A2 | c2 B2 A2 G2 | F4 z2 A2 | c2 B2 A2 G2 | D2 E2 !fermata!F4 | z2 A2 F2 G2 | %6
w: So offt ich|schla- gen hör die|Stund, se-|gne ich mein Stirn,|Hertz und Mund,|und bitt Gott|
w: Wann d'Uhr Eins|schlägt, so sag ich|drauff, Ein|Gott, ein Hertz, ein|Glaub, ein Tauff,|ein Kirch die|
 A3 A A2 B2 | c4 z2 c2 | B2 A2 G2 A2 | F2 B2 !fermata!A4 | z2 G2 F3 F | E2 C2 D2 D2 | C4 z2 c2 | %13
w: umb ein se- ligs|End, dasz|er mit sei- ner|Hülff be- hend,|mir gnä- dig|bey- sprin- * gen|wöll, mein|
w: Hey- lig All- ge-|mein, in|der Man se- lig|wird al- lein,|die- se die|so mein Mut- ter|seyn bisz|
 A3 G F2 E2 | D2 E2 !fermata!F4 |] %15
w: Seel er- ret- ten|von der Höll.|
w: in den letz- ten|A- them mein.|
V:2
"^2)""^1)" A4 A2 F2 | A2 D2 F2 E2 | C4 z2 CD | E2 D2 F2 D2 | A,2 E2 !fermata!C4 | z2 F2 F2 D2 | %6
w: So offt ich|schla- gen hör die|Stund, se- *|gne ich mein Stirn,|Hertz und Mund,|und bitt Gott|
w: Umb Zwey be-|denck ich Leib und|Seel, wie _|ich die zwey Stück|Gott be- fehl,|Weil sie an|
 A3 F F2 F2 | A4 z2 A2 | F2 C2 D2 F2 | C2 D2 !fermata!C4 | z2 E2 C3 C | C2 C2 D2 D2 | A,4 z2 E2 | %13
w: umb ein se- ligs|End, dasz|er mit sei- ner|Hülff be- hend,|mir gnä- dig|bey- spin- * gen|wöll, mein|
w: mei- nem letz- ten|End, ab-|ge- sön- dert werd'|und zer- trennt,|bisz auff de|Jüng- sten Tag mit|Nam, Da|
 C3 C D2 C2 | A,2 E2 !fermata!A,4 |] %15
w: Seel er- ret- ten|von der Höll.|
w: kom- mens wie- der-|umb zu- sam.|
V:3
"^3)""^1)""^4)" F,4 D,2 A,2 | F,2 G,2 F,2 C,2 | F,4 z2 F,2 | C,2 G,2 D,2 B,2 | %4
w: So offt ich|schla- gen hör die|Stund, se-|gne ich mein Stirn,|
w: Umb Drey ge-|denck ich al- le-|zeit, der|hei- lig- sten Drey-|
 F,2 B,A, !fermata!F,4 | z2 F,2 D,2 G,2 | F,3 F, D,2 B,,2 | F,4 z2 F,2 | D,2 F,2 B,2 F,2 | %9
w: Hertz und _ Mund,|und bitt Gott|umb ein se- ligs|End, dasz|er mit sei- ner|
w: fal- tig- * keit,|dasz sie mein|Uhr- werck richt zu|Hand, Ge-|dächt- nusz, Wil- len|
 A,2 B,2 !fermata!F,4 | z2 C,2 F,3 F, | C,2 A,,2 D,2 B,,2 | F,4 z2 C,2 | F,3 E, D,2 A,2 | %14
w: Hülff be- hend,|mir gnä- dig|bey- sprin- * gen|wöll, mein|Seel er- ret- ten|
w: und Ver- stand,|zu ihr- en|ei- gnen Lob und|Preysz, dasz|ich nicht irz auff|
 F,2 C,2 !fermata!F,4 |] %15
w: von der Höll.|
w: mei- ner Reisz.|

